!!!COM: Ernest Reyer
!!!CNT: Francais
!!!TXO: Francais
!!!OTL: Adieu Suzon!
!!!LYR: Alfred de Musset
!!!ENC: Jacob Pegg
!!!YOR: Romantic French Song 1830-1870 -David Tunley, ed.,
!!!YOR: New York: Garland Publishing, Inc., 1995,
!!!YOR: Vol. 1 - 'Early Romances'
!!!ODT: 1850/
!!NB: Vocal melody and text only encoded.
!!NB: First instance of melodic material only encoded.
**kern	**silbe
*clef G2	*
*k[b-e-a-]	*
*M2/4	*
=1	=1
8r	.
{8B-	{A-
8e-	-dieu
8f	Su-
=2	=2
8g	-zon,
8a-	ma
8b-	ro-
8b-	-se
=3	=3
[2ee-	blon-
=4	=4
8ee-]}	-de,}
{8dd	{Qui
8cc	fut
8b-	a\
=5	=5
b-q	moi
8a-	|
8g	pen-
8.f	-dant
16g	huit
=6	=6
[2b-	jours;
=7	=7
2b-_	|
=8	=8
4b-]}	|}
4r	.
=9	=9
8r	.
{8g	{Les
8c	plus
8d	courts
=10	=10
8e-	plai-
8f	-sirs
8g	de
8cc	ce
=11	=11
[2ee-	mon-
=12	=12
8ee-]}	-de}
{8dd	{Sou-
8b-	-vent
8cc	font
=13	=13
ccq	les
8b-	|
8an	meil-
8g	-leurs
8an	a-
=14	=14
[2b-	-mours.
=15	=15
2b-_	|
=16	=16
4b-]}	|}
4r	.
=17	=17
8r	.
{8a-	{Sais~
8a-	~je, au
8a-	mo-
=18	=18
8a-	-ment
8a-	ou\
8.a-	je
16e-	te
=19	=19
[2a-	quit-
=20	=20
4a-]}	-te}
4r	.
=21	=21
8r	.
{8g	{Ou\
8g	m'en-
8g	-trai^-
=22	=22
8g	-ne
8g	mon
8.g	astre
16d	er-
=23	=23
[2g	-rant?
=24	=24
4g]}	|}
4r	.
=25	=25
{8f	{Je
8a-	m'en
8cc	vais
8dd	pour-
=26	=26
4cc	-tant,
(16b-q	ma
16ccq	|
8.b-)	|
16a-	pe-
=27	=27
(4f	-ti-
b-q	-te,
4b-;)}	|}
=28	=28
{2b-	{Ah!
=29	=29
8r	.
8g	bien
8g	loin,
8g	bien
=30	=30
[2b-	vi^-
=31	=31
8b-]	-te,
8g	Tou-
8g	-jours
8g	cou-
=32	=32
[2b-	-rant.
=33	=33
8b-]	|
8g	Bien
8g	loin,
8g	bien
=34	=34
(4ee-;	vi^-
8b-)	-te,
8a-	Tou-
=35	=35
(16gq	-jours
16a-q	|
4.g;)	|
8f	cou-
=36	=36
4e-}	-rant.}
4r	.
*-	*-
